X: 35730
T: Saint Ruth's Bush
R: reel
M: 4/4
K: Adorian
|:Bd|eAAB (3cBc BA|GEED EDEG|A^GAB cBcd|eaag egdg|
eAAB (3cBc BA|GEED EDEG|A^GAB cd (3efg|dBGB A2:|
|:a|e (3aba g abag|e (3aba g bgag|eggf gabg|eg (3gfg edBd|
eaag abag|eaag bgag|edBd gfge|dBGB A2:|

